X: 1
T:Bash the Carp
M:4/4
C:
S:Ruth Temple and Julia Schult
N:
A:Uptown-on-Calhoun
O:Minnesota
R:Reel
%P:A.(AB)$^4$
P:A.(AB)4
K:G
I:speed 400
P:A
 dc | B2 Bc  A2  AB | GAGF   G2  AB |  cBcd   edcB  | AGAB  c2  \
 dc | B2 Bc  A2  AB | GAGF   G2  AB |  cBAG   FGAF  | G2G2  G2  ||\
P:B
 Bc | d2 gd  e2  e2 | dcBc   A2  Bc |  d2 gd  edcB  | AGAB  cA  \
 Bc | d2 gd  e2  e2 | dcBc   A2  dc |  BdcB   AcBA  | G2G2  G2  \
 Bc | d2 d2  d2 .g2 | d2 d2  d2 .g2 |  d2.d2  ed.cB | AGAB  cA  \
.Bc | d2 d2  d2  g2 | d2 d2  d2  g2 |  edcB   dcBA  | G2G2  G2  ||
